Newaita/actions/symbolic/view-fullscreen-symbolic.svg

<svg height="16" viewBox="0 0 16 16" width="16" xmlns="http://www.w3.org/2000/svg"><g fill="#424242"><path d="m1.652344 1.449219c-.363282 0-.660156.292969-.660156.660156v3.308594c0 .367187.296874.660156.660156.660156h.664062c.367188 0 .660156-.292969.660156-.660156v-1.984375h1.984376c.367187 0 .660156-.296875.660156-.664063v-.660156c0-.367187-.292969-.660156-.660156-.660156zm0 0"/><path d="m10.914062 1.449219c-.367187 0-.660156.292969-.660156.660156v.660156c0 .367188.292969.664063.660156.664063h1.984376v1.984375c0 .367187.296874.660156.664062.660156h.660156c.367188 0 .660156-.292969.660156-.660156v-3.308594c0-.101563-.023437-.199219-.0625-.285156-.011718-.019531-.019531-.039063-.03125-.058594-.105468-.171875-.285156-.292969-.5-.3125-.019531-.003906-.042968-.003906-.066406-.003906zm0 0"/><path d="m1.652344 10.046875c-.363282 0-.660156.296875-.660156.664063v3.304687c0 .035156.003906.070313.007812.101563 0 .011718.003906.023437.003906.035156.011719.050781.03125.105468.054688.152344.007812.019531.019531.039062.027344.054687.007812.011719.011718.019531.019531.027344.023437.035156.050781.070312.082031.097656.003906.007813.011719.015625.019531.023437.023438.019532.050781.039063.078125.058594.007813.003906.015625.011719.023438.015625.011718.007813.019531.011719.03125.015625.007812.007813.015625.011719.027344.015625.066406.03125.140624.054688.21875.0625h.015624c.019532.003907.035157.003907.050782.003907h3.308594c.367187 0 .660156-.296876.660156-.664063v-.660156c0-.367188-.292969-.660157-.660156-.660157h-1.984376v-1.984374c0-.367188-.292968-.664063-.660156-.664063zm0 0"/><path d="m13.5625 10.046875c-.367188 0-.664062.296875-.664062.664063v1.984374h-1.984376c-.367187 0-.660156.292969-.660156.660157v.660156c0 .367187.292969.664063.660156.664063h3.308594c.027344 0 .058594-.003907.085938-.007813.191406-.023437.359375-.128906.464844-.285156.015624-.027344.03125-.054688.046874-.082031.039063-.085938.0625-.183594.0625-.289063v-3.304687c0-.367188-.292968-.664063-.660156-.664063zm0 0"/></g></svg>

<?xml version="1.0" encoding="UTF-8"?>
<svg xmlns="http://www.w3.org/2000/svg" xmlns:xlink="http://www.w3.org/1999/xlink" width="16px" height="16px" viewBox="0 0 16 16" version="1.1">
<g id="surface1">
<path style=" stroke:none;fill-rule:nonzero;fill:rgb(25.882354%,25.882354%,25.882354%);fill-opacity:1;" d="M 1.652344 1.449219 C 1.289062 1.449219 0.992188 1.742188 0.992188 2.109375 L 0.992188 5.417969 C 0.992188 5.785156 1.289062 6.078125 1.652344 6.078125 L 2.316406 6.078125 C 2.683594 6.078125 2.976562 5.785156 2.976562 5.417969 L 2.976562 3.433594 L 4.960938 3.433594 C 5.328125 3.433594 5.621094 3.136719 5.621094 2.769531 L 5.621094 2.109375 C 5.621094 1.742188 5.328125 1.449219 4.960938 1.449219 Z M 1.652344 1.449219 "/>
<path style=" stroke:none;fill-rule:nonzero;fill:rgb(25.882354%,25.882354%,25.882354%);fill-opacity:1;" d="M 10.914062 1.449219 C 10.546875 1.449219 10.253906 1.742188 10.253906 2.109375 L 10.253906 2.769531 C 10.253906 3.136719 10.546875 3.433594 10.914062 3.433594 L 12.898438 3.433594 L 12.898438 5.417969 C 12.898438 5.785156 13.195312 6.078125 13.5625 6.078125 L 14.222656 6.078125 C 14.589844 6.078125 14.882812 5.785156 14.882812 5.417969 L 14.882812 2.109375 C 14.882812 2.007812 14.859375 1.910156 14.820312 1.824219 C 14.808594 1.804688 14.800781 1.785156 14.789062 1.765625 C 14.683594 1.59375 14.503906 1.472656 14.289062 1.453125 C 14.269531 1.449219 14.246094 1.449219 14.222656 1.449219 Z M 10.914062 1.449219 "/>
<path style=" stroke:none;fill-rule:nonzero;fill:rgb(25.882354%,25.882354%,25.882354%);fill-opacity:1;" d="M 1.652344 10.046875 C 1.289062 10.046875 0.992188 10.34375 0.992188 10.710938 L 0.992188 14.015625 C 0.992188 14.050781 0.996094 14.085938 1 14.117188 C 1 14.128906 1.003906 14.140625 1.003906 14.152344 C 1.015625 14.203125 1.035156 14.257812 1.058594 14.304688 C 1.066406 14.324219 1.078125 14.34375 1.085938 14.359375 C 1.09375 14.371094 1.097656 14.378906 1.105469 14.386719 C 1.128906 14.421875 1.15625 14.457031 1.1875 14.484375 C 1.191406 14.492188 1.199219 14.5 1.207031 14.507812 C 1.230469 14.527344 1.257812 14.546875 1.285156 14.566406 C 1.292969 14.570312 1.300781 14.578125 1.308594 14.582031 C 1.320312 14.589844 1.328125 14.59375 1.339844 14.597656 C 1.347656 14.605469 1.355469 14.609375 1.367188 14.613281 C 1.433594 14.644531 1.507812 14.667969 1.585938 14.675781 C 1.589844 14.675781 1.597656 14.675781 1.601562 14.675781 C 1.621094 14.679688 1.636719 14.679688 1.652344 14.679688 L 4.960938 14.679688 C 5.328125 14.679688 5.621094 14.382812 5.621094 14.015625 L 5.621094 13.355469 C 5.621094 12.988281 5.328125 12.695312 4.960938 12.695312 L 2.976562 12.695312 L 2.976562 10.710938 C 2.976562 10.34375 2.683594 10.046875 2.316406 10.046875 Z M 1.652344 10.046875 "/>
<path style=" stroke:none;fill-rule:nonzero;fill:rgb(25.882354%,25.882354%,25.882354%);fill-opacity:1;" d="M 13.5625 10.046875 C 13.195312 10.046875 12.898438 10.34375 12.898438 10.710938 L 12.898438 12.695312 L 10.914062 12.695312 C 10.546875 12.695312 10.253906 12.988281 10.253906 13.355469 L 10.253906 14.015625 C 10.253906 14.382812 10.546875 14.679688 10.914062 14.679688 L 14.222656 14.679688 C 14.25 14.679688 14.28125 14.675781 14.308594 14.671875 C 14.5 14.648438 14.667969 14.542969 14.773438 14.386719 C 14.789062 14.359375 14.804688 14.332031 14.820312 14.304688 C 14.859375 14.21875 14.882812 14.121094 14.882812 14.015625 L 14.882812 10.710938 C 14.882812 10.34375 14.589844 10.046875 14.222656 10.046875 Z M 13.5625 10.046875 "/>
</g>
</svg>
